;https://www.thingiverse.com/thing:2729076
;FLAVOR:Marlin
;TIME:11230
;Filament used: 5.98296m
;Layer height: 0.2
;MINX:126.853
;MINY:134.921
;MINZ:0.2
;MAXX:174.338
;MAXY:165.079
;MAXZ:101.4
;Generated with Cura_SteamEngine 4.8.0
M140 S50
M105
M190 S50
M105
M109 S225
M82 ;absolute extrusion mode
M201 X500.00 Y500.00 Z100.00 E5000.00 ;Setup machine max acceleration
M203 X500.00 Y500.00 Z10.00 E50.00 ;Setup machine max feedrate
M204 P500.00 R1000.00 T500.00 ;Setup Print/Retract/Travel acceleration
M205 X8.00 Y8.00 Z0.40 E5.00 ;Setup Jerk
M220 S100 ;Reset Feedrate
M221 S100 ;Reset Flowrate

G28 ;Home

G92 E0 ;Reset Extruder
G1 Z2.0 F3000 ;Move Z Axis up
G1 X10.1 Y20 Z0.28 F5000.0 ;Move to start position
G1 X10.1 Y200.0 Z0.28 F1500.0 E15 ;Draw the first line
G1 X10.4 Y200.0 Z0.28 F5000.0 ;Move to side a little
G1 X10.4 Y20 Z0.28 F1500.0 E30 ;Draw the second line
G92 E0 ;Reset Extruder
G1 Z2.0 F3000 ;Move Z Axis up

G92 E0
G92 E0
G1 F2700 E-5
;LAYER_COUNT:507
;LAYER:0
M107
G0 F6000 X129.98 Y135.369 Z0.2
;TYPE:SKIRT
G1 F2700 E0
G1 F1200 X130.201 Y135.213 E0.009
G1 X130.53 Y135.061 E0.02105
G1 X130.962 Y134.97 E0.03573
G1 X131.27 Y134.952 E0.046
G1 X131.375 Y134.951 E0.04949
G1 X131.65 Y134.964 E0.05865
G1 X131.732 Y134.971 E0.06138
G1 X132.04 Y135.011 E0.07171
G1 X132.428 Y135.084 E0.08484
G1 X132.487 Y135.097 E0.08685
G1 X132.875 Y135.197 E0.10018
G1 X133.263 Y135.317 E0.11369
G1 X133.61 Y135.441 E0.12594
G1 X134.044 Y135.623 E0.1416
G1 X134.369 Y135.779 E0.15359
G1 X134.771 Y135.998 E0.16881
G1 X135.063 Y136.178 E0.18022
G1 X135.113 Y136.211 E0.18222
G1 X135.429 Y136.435 E0.1951
G1 X135.678 Y136.633 E0.20568
G1 X135.73 Y136.677 E0.20794
G1 X135.956 Y136.883 E0.21812
G1 X136.202 Y137.132 E0.22976
G1 X136.246 Y137.179 E0.2319
G1 X136.432 Y137.395 E0.24138
G1 X136.637 Y137.663 E0.2526
G1 X136.673 Y137.713 E0.25465
G1 X136.856 Y137.991 E0.26572
G1 X137.01 Y138.255 E0.27589
G1 X137.147 Y138.522 E0.28587
G1 X137.273 Y138.796 E0.2959
G1 X137.426 Y139.173 E0.30943
G1 X137.589 Y139.629 E0.32554
G1 X137.732 Y140.053 E0.34042
G1 X137.86 Y140.408 E0.35297
G1 X138.001 Y140.745 E0.36512
G1 X138.146 Y141.038 E0.37599
G1 X138.325 Y141.345 E0.38781
G1 X138.497 Y141.599 E0.39802
G1 X138.711 Y141.868 E0.40945
G1 X138.919 Y142.092 E0.41962
G1 X139.157 Y142.311 E0.43037
G1 X139.353 Y142.462 E0.4386
G1 X139.567 Y142.606 E0.44718
G1 X139.792 Y142.737 E0.45584
G1 X140.085 Y142.883 E0.46673
G1 X140.499 Y143.053 E0.48162
G1 X140.696 Y143.119 E0.48853
G1 X140.95 Y143.199 E0.49738
G1 X141.235 Y143.277 E0.50721
G1 X141.57 Y143.36 E0.51869
G1 X141.869 Y143.422 E0.52885
G1 X142.2 Y143.485 E0.54005
G1 X142.571 Y143.547 E0.55256
G1 X142.989 Y143.608 E0.56661
G1 X143.402 Y143.661 E0.58046
G1 X143.874 Y143.715 E0.59626
G1 X144.347 Y143.759 E0.61206
G1 X144.876 Y143.804 E0.62972
G1 X145.413 Y143.842 E0.64763
G1 X146.301 Y143.893 E0.67721
G1 X146.943 Y143.922 E0.69859
G1 X147.602 Y143.945 E0.72052
G1 X148.679 Y143.975 E0.75635
G1 X149.824 Y143.995 E0.79444
G1 X151.051 Y144.005 E0.83525
G1 X151.91 Y144.006 E0.86382
G1 X153.16 Y144.002 E0.9054
G1 X153.999 Y143.992 E0.93331
G1 X155.147 Y143.97 E0.9715
G1 X155.875 Y143.952 E0.99572
G1 X156.552 Y143.928 E1.01825
G1 X157.202 Y143.9 E1.03989
G1 X157.827 Y143.868 E1.0607
G1 X158.653 Y143.816 E1.08823
G1 X159.214 Y143.772 E1.10694
G1 X159.715 Y143.726 E1.12368
G1 X160.167 Y143.68 E1.13879
G1 X160.609 Y143.626 E1.1536
G1 X161.039 Y143.566 E1.16804
G1 X161.428 Y143.505 E1.18114
G1 X161.763 Y143.445 E1.19246
G1 X162.135 Y143.369 E1.20508
G1 X162.387 Y143.311 E1.21369
G1 X162.736 Y143.222 E1.22566
G1 X162.956 Y143.158 E1.23328
G1 X163.232 Y143.068 E1.24294
G1 X163.664 Y142.9 E1.25836
G1 X163.927 Y142.777 E1.26801
G1 X164.161 Y142.646 E1.27693
G1 X164.393 Y142.497 E1.2861
G1 X164.756 Y142.212 E1.30145
G1 X165.002 Y141.971 E1.31291
G1 X165.199 Y141.743 E1.32293
G1 X165.392 Y141.482 E1.33373
G1 X165.577 Y141.189 E1.34525
G1 X165.726 Y140.917 E1.35557
G1 X165.878 Y140.583 E1.36777
G1 X166.019 Y140.224 E1.3806
G1 X166.318 Y139.354 E1.4112
G1 X166.498 Y138.881 E1.42803
G1 X166.621 Y138.601 E1.4382
G1 X166.753 Y138.332 E1.44817
G1 X166.876 Y138.108 E1.45667
G1 X167.068 Y137.798 E1.4688
G1 X167.225 Y137.575 E1.47787
G1 X167.437 Y137.308 E1.48921
G1 X167.476 Y137.262 E1.49121
G1 X167.67 Y137.047 E1.50084
G1 X167.713 Y137.002 E1.50291
G1 X167.927 Y136.793 E1.51286
G1 X167.976 Y136.748 E1.51508
G1 X168.212 Y136.546 E1.52541
G1 X168.517 Y136.314 E1.53815
G1 X168.564 Y136.28 E1.54008
G1 X168.844 Y136.093 E1.55128
G1 X169.191 Y135.888 E1.56469
G1 X169.239 Y135.861 E1.56652
G1 X169.603 Y135.675 E1.58011
G1 X169.979 Y135.506 E1.59382
G1 X170.369 Y135.353 E1.60776
G1 X170.763 Y135.222 E1.62157
G1 X171.156 Y135.112 E1.63514
G1 X171.549 Y135.023 E1.64854
G1 X171.87 Y134.969 E1.65937
G1 X171.942 Y134.959 E1.66179
G1 X172.24 Y134.931 E1.67174
G1 X172.312 Y134.927 E1.67414
G1 X172.583 Y134.921 E1.68316
G1 X172.728 Y134.929 E1.68799
G1 X173.011 Y134.964 E1.69747
G1 X173.25 Y135.024 E1.70567
G1 X173.505 Y135.123 E1.71477
G1 X173.751 Y135.261 E1.72415
G1 X174.03 Y135.542 E1.73732
G1 X174.19 Y135.774 E1.74669
G1 X174.286 Y136.091 E1.75771
G1 X174.32 Y136.355 E1.76656
G1 X174.293 Y136.745 E1.77956
G1 X174.165 Y137.153 E1.79379
G1 X174.035 Y137.425 E1.80381
G1 X173.988 Y137.513 E1.80713
G1 X173.844 Y137.75 E1.81635
G1 X173.612 Y138.087 E1.82996
G1 X173.395 Y138.379 E1.84206
G1 X173.154 Y138.69 E1.85515
G1 X172.547 Y139.454 E1.8876
G1 X172.204 Y139.902 E1.90637
G1 X172.008 Y140.173 E1.91749
G1 X171.815 Y140.457 E1.92891
G1 X171.632 Y140.751 E1.94043
G1 X171.482 Y141.02 E1.95068
G1 X171.372 Y141.249 E1.95913
G1 X171.269 Y141.503 E1.96824
G1 X171.155 Y141.925 E1.98278
G1 X171.12 Y142.292 E1.99504
G1 X171.137 Y142.695 E2.00846
G1 X171.177 Y143 E2.01869
G1 X171.258 Y143.498 E2.03547
G1 X171.307 Y143.785 E2.04515
G1 X171.377 Y144.29 E2.06211
G1 X171.409 Y144.602 E2.07254
G1 X171.43 Y144.972 E2.08487
G1 X171.432 Y145.037 E2.08703
G1 X171.429 Y145.398 E2.09904
G1 X171.408 Y145.711 E2.10947
G1 X171.402 Y145.772 E2.11151
G1 X171.359 Y146.081 E2.12189
G1 X171.312 Y146.336 E2.13051
G1 X171.297 Y146.405 E2.13286
G1 X171.22 Y146.697 E2.14291
G1 X171.118 Y147.018 E2.15411
G1 X170.998 Y147.326 E2.1651
G1 X170.857 Y147.64 E2.17655
G1 X170.721 Y147.905 E2.18646
G1 X170.513 Y148.263 E2.20023
G1 X170.312 Y148.57 E2.21243
G1 X170.093 Y148.875 E2.22492
G1 X169.853 Y149.186 E2.23799
G1 X169.584 Y149.505 E2.25187
G1 X169.317 Y149.802 E2.26515
G1 X169.133 Y149.994 E2.27399
G1 X169.316 Y150.186 E2.28282
G1 X169.598 Y150.498 E2.2968
G1 X169.856 Y150.806 E2.31017
G1 X170.1 Y151.119 E2.32337
G1 X170.321 Y151.428 E2.336
G1 X170.524 Y151.741 E2.34841
G1 X170.683 Y152.011 E2.35883
G1 X170.847 Y152.326 E2.37064
G1 X170.988 Y152.633 E2.38188
G1 X171.111 Y152.941 E2.39291
G1 X171.134 Y153.005 E2.39517
G1 X171.232 Y153.317 E2.40605
G1 X171.298 Y153.574 E2.41488
G1 X171.36 Y153.882 E2.42533
G1 X171.37 Y153.943 E2.42738
G1 X171.411 Y154.261 E2.43805
G1 X171.433 Y154.572 E2.44842
G1 X171.438 Y154.933 E2.46042
G1 X171.437 Y154.999 E2.46262
G1 X171.414 Y155.413 E2.47641
G1 X171.382 Y155.71 E2.48635
G1 X171.313 Y156.209 E2.5031
G1 X171.187 Y156.97 E2.52876
G1 X171.138 Y157.377 E2.54239
G1 X171.131 Y157.768 E2.5554
G1 X171.18 Y158.139 E2.56784
G1 X171.32 Y158.599 E2.58384
G1 X171.415 Y158.816 E2.59171
G1 X171.553 Y159.083 E2.60171
G1 X171.721 Y159.367 E2.61269
G1 X171.887 Y159.625 E2.62289
G1 X172.087 Y159.91 E2.63447
G1 X172.314 Y160.214 E2.64709
G1 X172.558 Y160.53 E2.66037
G1 X173.176 Y161.307 E2.69339
G1 X173.525 Y161.761 E2.71243
G1 X173.744 Y162.066 E2.72492
G1 X173.904 Y162.31 E2.73463
G1 X173.939 Y162.367 E2.73685
G1 X174.072 Y162.603 E2.74586
G1 X174.127 Y162.717 E2.75007
G1 X174.235 Y162.982 E2.75959
G1 X174.298 Y163.214 E2.76759
G1 X174.336 Y163.473 E2.77629
G1 X174.338 Y163.755 E2.78567
G1 X174.213 Y164.165 E2.79993
G1 X174.081 Y164.414 E2.8093
G1 X173.849 Y164.644 E2.82017
G1 X173.628 Y164.8 E2.82917
G1 X173.3 Y164.951 E2.84118
G1 X172.872 Y165.043 E2.85574
G1 X172.564 Y165.062 E2.866
G1 X172.455 Y165.063 E2.86962
G1 X172.18 Y165.05 E2.87878
G1 X172.098 Y165.043 E2.88152
G1 X171.733 Y164.994 E2.89377
G1 X171.405 Y164.932 E2.90487
G1 X171.003 Y164.831 E2.91866
G1 X170.611 Y164.712 E2.93228
G1 X170.564 Y164.697 E2.93392
G1 X170.218 Y164.572 E2.94616
G1 X169.789 Y164.392 E2.96163
G1 X169.464 Y164.237 E2.97361
G1 X169.108 Y164.045 E2.98706
G1 X169.059 Y164.017 E2.98894
G1 X168.767 Y163.837 E3.00035
G1 X168.717 Y163.804 E3.00234
G1 X168.448 Y163.615 E3.01327
G1 X168.399 Y163.578 E3.01532
G1 X168.15 Y163.379 E3.02592
G1 X168.104 Y163.34 E3.02792
G1 X167.83 Y163.091 E3.04024
G1 X167.624 Y162.88 E3.05005
G1 X167.398 Y162.62 E3.0615
G1 X167.354 Y162.566 E3.06382
G1 X167.158 Y162.302 E3.07476
G1 X166.98 Y162.034 E3.08546
G1 X166.819 Y161.76 E3.09603
G1 X166.697 Y161.525 E3.10483
G1 X166.526 Y161.145 E3.11869
G1 X166.325 Y160.625 E3.13724
G1 X166.033 Y159.777 E3.16707
G1 X165.901 Y159.438 E3.17917
G1 X165.75 Y159.106 E3.1913
G1 X165.593 Y158.812 E3.20238
G1 X165.419 Y158.536 E3.21323
G1 X165.227 Y158.274 E3.22404
G1 X165.017 Y158.027 E3.23482
G1 X164.795 Y157.809 E3.24517
G1 X164.599 Y157.641 E3.25376
G1 X164.421 Y157.51 E3.26111
G1 X164.186 Y157.359 E3.2704
G1 X163.941 Y157.223 E3.27972
G1 X163.566 Y157.051 E3.29344
G1 X163.117 Y156.886 E3.30935
G1 X162.87 Y156.809 E3.31795
G1 X162.572 Y156.728 E3.32822
G1 X162.303 Y156.662 E3.33744
G1 X161.952 Y156.587 E3.34938
G1 X161.612 Y156.523 E3.36088
G1 X161.238 Y156.46 E3.3735
G1 X160.858 Y156.404 E3.38627
G1 X160.429 Y156.349 E3.40066
G1 X159.957 Y156.295 E3.41646
G1 X159.485 Y156.251 E3.43223
G1 X158.954 Y156.206 E3.44995
G1 X158.415 Y156.168 E3.46792
G1 X157.832 Y156.133 E3.48735
G1 X157.207 Y156.101 E3.50816
G1 X156.568 Y156.075 E3.52943
G1 X155.517 Y156.042 E3.56441
G1 X154.782 Y156.026 E3.58886
G1 X154.007 Y156.013 E3.61464
G1 X153.198 Y156.005 E3.64155
G1 X151.918 Y156.001 E3.68412
G1 X150.671 Y156.005 E3.7256
G1 X149.468 Y156.02 E3.76561
G1 X148.345 Y156.044 E3.80297
G1 X147.61 Y156.065 E3.82743
G1 X146.656 Y156.103 E3.85918
G1 X145.729 Y156.153 E3.89006
G1 X145.143 Y156.192 E3.90959
G1 X144.609 Y156.234 E3.92741
G1 X144.136 Y156.276 E3.9432
G1 X143.664 Y156.324 E3.95898
G1 X143.224 Y156.378 E3.97373
G1 X142.776 Y156.44 E3.98877
G1 X142.389 Y156.501 E4.0018
G1 X142.052 Y156.561 E4.01318
G1 X141.708 Y156.631 E4.02486
G1 X141.413 Y156.698 E4.03492
G1 X141.123 Y156.774 E4.04489
G1 X140.842 Y156.855 E4.05462
G1 X140.632 Y156.924 E4.06197
G1 X140.379 Y157.016 E4.07093
G1 X140.003 Y157.179 E4.08456
G1 X139.73 Y157.32 E4.09478
G1 X139.518 Y157.45 E4.10305
G1 X139.309 Y157.597 E4.11155
G1 X139.065 Y157.798 E4.12206
G1 X138.832 Y158.027 E4.13293
G1 X138.623 Y158.268 E4.14354
G1 X138.44 Y158.516 E4.15379
G1 X138.255 Y158.808 E4.16528
G1 X138.104 Y159.083 E4.17572
G1 X137.955 Y159.412 E4.18773
G1 X137.804 Y159.795 E4.20142
G1 X137.511 Y160.646 E4.23136
G1 X137.331 Y161.119 E4.24819
G1 X137.208 Y161.399 E4.25836
G1 X137.076 Y161.668 E4.26833
G1 X136.953 Y161.892 E4.27683
G1 X136.793 Y162.152 E4.28698
G1 X136.602 Y162.425 E4.29807
G1 X136.567 Y162.472 E4.30001
G1 X136.355 Y162.735 E4.31125
G1 X136.162 Y162.95 E4.32086
G1 X136.115 Y162.999 E4.32312
G1 X135.9 Y163.208 E4.33309
G1 X135.855 Y163.249 E4.33512
G1 X135.62 Y163.451 E4.34542
G1 X135.57 Y163.491 E4.34755
G1 X135.268 Y163.717 E4.3601
G1 X134.988 Y163.905 E4.37131
G1 X134.937 Y163.937 E4.37332
G1 X134.591 Y164.139 E4.38664
G1 X134.225 Y164.326 E4.40031
G1 X133.851 Y164.493 E4.41394
G1 X133.462 Y164.646 E4.42784
G1 X133.115 Y164.763 E4.44002
G1 X132.674 Y164.888 E4.45526
G1 X132.341 Y164.965 E4.46663
G1 X132.281 Y164.977 E4.46867
G1 X131.959 Y165.031 E4.47953
G1 X131.888 Y165.041 E4.48191
G1 X131.59 Y165.069 E4.49187
G1 X131.518 Y165.073 E4.49426
G1 X131.247 Y165.079 E4.50328
G1 X131.107 Y165.072 E4.50794
G1 X130.822 Y165.038 E4.51749
G1 X130.577 Y164.977 E4.52589
G1 X130.323 Y164.878 E4.53495
G1 X130.077 Y164.739 E4.54435
G1 X129.799 Y164.459 E4.55747
G1 X129.639 Y164.226 E4.56688
G1 X129.543 Y163.913 E4.57776
G1 X129.508 Y163.651 E4.58656
G1 X129.533 Y163.26 E4.59959
G1 X129.661 Y162.849 E4.61391
G1 X129.791 Y162.577 E4.62393
G1 X129.838 Y162.49 E4.62722
G1 X129.984 Y162.249 E4.63659
G1 X130.019 Y162.195 E4.63873
G1 X130.213 Y161.918 E4.64998
G1 X130.441 Y161.609 E4.66275
G1 X130.78 Y161.175 E4.68107
G1 X131.278 Y160.549 E4.70768
G1 X131.514 Y160.245 E4.72048
G1 X131.729 Y159.955 E4.73248
G1 X131.929 Y159.671 E4.74404
G1 X132.112 Y159.392 E4.75513
G1 X132.271 Y159.122 E4.76556
G1 X132.402 Y158.871 E4.77497
G1 X132.515 Y158.618 E4.78419
G1 X132.587 Y158.415 E4.79135
G1 X132.656 Y158.169 E4.79985
G1 X132.705 Y157.811 E4.81187
G1 X132.701 Y157.41 E4.82521
G1 X132.651 Y156.987 E4.83937
G1 X132.527 Y156.245 E4.86439
G1 X132.453 Y155.714 E4.88223
G1 X132.42 Y155.398 E4.89279
G1 X132.4 Y154.994 E4.90625
G1 X132.398 Y154.737 E4.9148
G1 X132.4 Y154.671 E4.91699
G1 X132.421 Y154.308 E4.92908
G1 X132.428 Y154.236 E4.93149
G1 X132.468 Y153.937 E4.94152
G1 X132.514 Y153.682 E4.95014
G1 X132.53 Y153.609 E4.95263
G1 X132.609 Y153.309 E4.96295
G1 X132.689 Y153.051 E4.97193
G1 X132.711 Y152.987 E4.97418
G1 X132.832 Y152.677 E4.98525
G1 X132.971 Y152.369 E4.99649
G1 X133.134 Y152.052 E5.00834
G1 X133.315 Y151.745 E5.0202
G1 X133.517 Y151.434 E5.03253
G1 X133.735 Y151.131 E5.04495
G1 X133.975 Y150.82 E5.05801
G1 X134.233 Y150.514 E5.07133
G1 X134.51 Y150.205 E5.08513
G1 X134.694 Y150.013 E5.09397
G1 X134.509 Y149.821 E5.10284
G1 X134.232 Y149.512 E5.11664
G1 X133.969 Y149.2 E5.13022
G1 X133.727 Y148.888 E5.14335
G1 X133.507 Y148.579 E5.15596
G1 X133.304 Y148.266 E5.16837
G1 X133.118 Y147.948 E5.18063
G1 X132.959 Y147.636 E5.19227
G1 X132.82 Y147.325 E5.2036
G1 X132.696 Y147.003 E5.21508
G1 X132.599 Y146.693 E5.22588
G1 X132.533 Y146.438 E5.23464
G1 X132.47 Y146.124 E5.2453
G1 X132.46 Y146.062 E5.24738
G1 X132.421 Y145.759 E5.25754
G1 X132.398 Y145.441 E5.26815
G1 X132.392 Y145.079 E5.28019
G1 X132.393 Y145.01 E5.28249
G1 X132.416 Y144.597 E5.29624
G1 X132.448 Y144.3 E5.30618
G1 X132.517 Y143.801 E5.32293
G1 X132.643 Y143.04 E5.34859
G1 X132.692 Y142.624 E5.36252
G1 X132.698 Y142.227 E5.37573
G1 X132.649 Y141.868 E5.38778
G1 X132.512 Y141.425 E5.4032
G1 X132.403 Y141.178 E5.41218
G1 X132.271 Y140.921 E5.42179
G1 X132.123 Y140.67 E5.43148
G1 X131.923 Y140.363 E5.44367
G1 X131.721 Y140.076 E5.45534
G1 X131.492 Y139.769 E5.46808
G1 X131.26 Y139.471 E5.48064
G1 X130.533 Y138.555 E5.51954
G1 X130.3 Y138.25 E5.5323
G1 X130.077 Y137.941 E5.54498
G1 X129.916 Y137.693 E5.55481
G1 X129.754 Y137.407 E5.56574
G1 X129.7 Y137.295 E5.56988
G1 X129.592 Y137.03 E5.5794
G1 X129.528 Y136.794 E5.58753
G1 X129.491 Y136.535 E5.59623
G1 X129.491 Y136.253 E5.60561
G1 X129.618 Y135.843 E5.61989
G1 X129.751 Y135.594 E5.62928
G1 X129.98 Y135.369 E5.63995
G0 F6000 X130.211 Y135.696
G1 F1200 X130.432 Y135.54 E5.64895
G1 X130.871 Y135.387 E5.66441
G1 X130.985 Y135.369 E5.66825
G1 X131.293 Y135.351 E5.67851
G1 X131.356 Y135.351 E5.68061
G1 X131.631 Y135.364 E5.68977
G1 X131.68 Y135.368 E5.6914
G1 X132.024 Y135.414 E5.70294
G1 X132.388 Y135.485 E5.71528
G1 X132.757 Y135.579 E5.72794
G1 X133.128 Y135.694 E5.74086
G1 X133.505 Y135.83 E5.75419
G1 X133.871 Y135.984 E5.7674
G1 X134.222 Y136.153 E5.78036
G1 X134.561 Y136.338 E5.7932
G1 X134.883 Y136.538 E5.80581
G1 X135.18 Y136.748 E5.81791
G1 X135.429 Y136.946 E5.82849
G1 X135.686 Y137.179 E5.84003
G1 X135.943 Y137.44 E5.85221
G1 X136.129 Y137.656 E5.86169
G1 X136.34 Y137.935 E5.87332
G1 X136.512 Y138.195 E5.88369
G1 X136.655 Y138.439 E5.8931
G1 X136.784 Y138.69 E5.90249
G1 X136.902 Y138.948 E5.91192
G1 X137.049 Y139.308 E5.92485
G1 X137.21 Y139.757 E5.94072
G1 X137.352 Y140.181 E5.95559
G1 X137.483 Y140.544 E5.96843
G1 X137.632 Y140.899 E5.98123
G1 X137.804 Y141.248 E5.99417
G1 X137.983 Y141.555 E6.00599
G1 X138.176 Y141.839 E6.01741
G1 X138.406 Y142.127 E6.02967
G1 X138.638 Y142.377 E6.04102
G1 X138.899 Y142.616 E6.05279
G1 X139.117 Y142.785 E6.06196
G1 X139.35 Y142.942 E6.07131
G1 X139.621 Y143.1 E6.08174
G1 X139.903 Y143.24 E6.09221
G1 X140.11 Y143.33 E6.09972
